X: 2856
T: Barge Inn, The
R: reel
M: 4/4
K: Dmixolydian
|:dcAc de=fe|dcAG ~E3G|cAG2 ceed|cdeg afge|
dcAc d2 =fe|dcAG ~E3G|cGG2 cdeg|1 agec Add2:|2 agec Addc||
|:d2fd adfe|defg ageB|c2 ed cAGA|cGG2 cGec|
d2fd adfe|defg ageB|cGG2 cdeg|1 agec Addc:|2 agec Add2||

